!!!COM: Robert Franz
!!!CNT: Deutscher
!!!TXO: Deutsche 
!!!OTL: "Madchen mit dem rothen Mundchen"
!!!OPS: Op. 5
!!!ONM: No. 5
!!!ONB: Original key: Db Major
!!!LYR: H. Heine
!!!ENC: Brian Bice
!!!YOR: Vocal Album, G. Schirmer, Inc., 1907
!!!ODT: 1846/
!!NB: Vocal melody and text only encoded.
**kern	**silbe
*clefG2	*
*k[b-e-]	*
*M2/4	*
*MM[andantino]	*
=1	=1
{8ee-	{Ma2d-
8dd	-chen
8cc	mit
8b-	dem
=2	=2
8a	ro-
8b-	-then
8cc	Mu2nd-
8f}	-chen,}
=3	=3
8r	.
{16f	{mit
16f	den
(8b-	A2ug-
16a)	|
16g	-lein
=4	=4
8f	su2ss
8e-	und
4d}	klar,}
=5	=5
{8b-	{du
8a	mein
8g	lie-
8f	-bes,
=6	=6
8en	su2-
8f	-sses
8g	Ma2d-
8c}	-chen,}
=7	=7
{8cc	{dei-
8f	-ner
(8b-	denk'
16a)	|
16g	ich
=8	=8
8f	im-
8en	-mer-
4f}	-dar.}
=9	=9
{8ee-	{Lang'
8dd	ist
8cc	heut'
8b-	der
=10	=10
8a	Win-
8b-	-ter-
8cc	-a-
8f}	-bend,}
=11	=11
8r	.
{16f	{und
16f	ich
(8b-	mo2ch-
16a)	|
16g	-te
=12	=12
8f	bei
8e-	dir
4d}	sein,}
=13	=13
{8b-	{bei
8a	dir
8g	sit-
8f	-zen,
=14	=14
8en	mit
8f	dir
8g	schwat-
8c}	-zen}
=15	=15
8r	.
{16f	{im
16f	ver-
(8b-	-trau-
16a)	|
16g	-ten
=16	=16
8f	Ka2m-
8en	-mer-
4f}	-lein.}
=17	=17
{8ee-	{An
8dd	die
8cc	Lip-
8b-	-pen
=18	=18
8a	wollt'
8b-	ich
8cc	pres-
8f}	-sen}
=19	=19
8r	.
{16f	{dei-
16f	-ne
(8b-	klei-
16a)	|
16g	-ne,
=20	=20
8f	wei-
8e-	-sse
4d}	Hand,}
=22	=22
{8b-	{und
8cc	mit
8dd-	Thra2-
8cc	-nen
=23	=23
8b-	sie
8cc	be-
(16ee-	-net-
16dd-)	|
(16cc	-sen,
16b-)}	|}
=24	=24
{8a-	{dei-
8g-	-ne
8f	klei-
8e-	-ne,
=25	=25
4.f	wei-
8e-	-sse
=26	=26
4d}	Hand.}
4r	.
*-	*-
